Sources/FrostedUI/Resources/Icons.xcassets/messageNotification16.imageset/message-notification-16.svg

<svg width="16" height="16" viewBox="0 0 16 16" fill="none" xmlns="http://www.w3.org/2000/svg" data-fui-icon="true">
  <path
    d="M8.5 1.75C8.91406 1.75018 9.25 2.08589 9.25 2.5C9.25 2.91411 8.91406 3.24982 8.5 3.25H3.16602C2.84428 3.25037 2.58318 3.51122 2.58301 3.83301V10.833C2.58301 11.155 2.84416 11.4166 3.16602 11.417H5.76758C6.05869 11.417 6.34205 11.5063 6.5791 11.6719L6.67773 11.748L8.00098 12.8564L9.34668 11.7422L9.44434 11.668C9.68023 11.5048 9.96149 11.4171 10.25 11.417H12.833C13.1552 11.417 13.416 11.1552 13.416 10.833V8.16699C13.416 7.75301 13.7521 7.41737 14.166 7.41699C14.5802 7.41699 14.916 7.75278 14.916 8.16699V10.833C14.916 11.9836 13.9836 12.917 12.833 12.917H10.2803L8.9043 14.0566C8.37776 14.4924 7.61484 14.4901 7.09082 14.0508L5.7373 12.917H3.16602C2.01575 12.9166 1.08301 11.9834 1.08301 10.833V3.83301C1.08318 2.68279 2.01585 1.75037 3.16602 1.75H8.5ZM5 6.5C5.46012 6.50002 5.83283 6.87298 5.83301 7.33301C5.83301 7.79319 5.46023 8.16697 5 8.16699C4.53975 8.16699 4.16699 7.7932 4.16699 7.33301C4.16717 6.87296 4.53986 6.5 5 6.5ZM8 6.5C8.46008 6.50002 8.83283 6.87297 8.83301 7.33301C8.83301 7.7932 8.46019 8.16697 8 8.16699C7.5398 8.16699 7.16699 7.79321 7.16699 7.33301C7.16717 6.87295 7.5399 6.5 8 6.5ZM12.667 1.08301C14.2775 1.08318 15.5828 2.38941 15.583 4C15.5828 5.61058 14.2775 6.91584 12.667 6.91602C11.0563 6.91602 9.75018 5.61069 9.75 4C9.75016 2.3893 11.0563 1.08301 12.667 1.08301ZM12.667 2.58301C11.8847 2.58301 11.2502 3.21774 11.25 4C11.2502 4.78225 11.8847 5.41602 12.667 5.41602C13.4491 5.41584 14.0828 4.78214 14.083 4C14.0828 3.21785 13.4491 2.58318 12.667 2.58301Z"
    fill="currentColor"
  />
</svg>

<svg xmlns="http://www.w3.org/2000/svg" width="16" height="16" fill="none" data-fui-icon="true" viewBox="0 0 16 16"><path fill="currentColor" d="M8.5 1.75a.75.75 0 0 1 0 1.5H3.166a.584.584 0 0 0-.583.583v7c0 .322.261.584.583.584h2.602c.29 0 .574.09.811.255l.099.076L8 12.856l1.346-1.114.097-.074c.236-.163.517-.25.806-.251h2.583a.584.584 0 0 0 .583-.584V8.167a.75.75 0 0 1 1.5 0v2.666c0 1.15-.932 2.084-2.083 2.084H10.28l-1.376 1.14a1.42 1.42 0 0 1-1.813-.006l-1.354-1.134H3.166a2.084 2.084 0 0 1-2.083-2.084v-7c0-1.15.933-2.083 2.083-2.083zM5 6.5a.833.833 0 1 1 0 1.666A.833.833 0 0 1 5 6.5m3 0a.833.833 0 1 1 0 1.666A.833.833 0 0 1 8 6.5m4.667-5.417a2.917 2.917 0 1 1-.002 5.834 2.917 2.917 0 0 1 .002-5.834m0 1.5a1.418 1.418 0 1 0 .001 2.835 1.418 1.418 0 0 0-.001-2.835"/></svg>
